packages/astro-components-stencil/src/icons/link-off.svg

<svg width="24" height="24" viewBox="0 0 24 24" fill="none" xmlns="http://www.w3.org/2000/svg">
<path fill-rule="evenodd" clip-rule="evenodd" d="M4.11995 3.56008C3.72995 3.17008 3.09995 3.17008 2.70995 3.56008C2.31995 3.95008 2.31995 4.58008 2.70995 4.97008L5.10995 7.37008C3.16995 8.17008 1.83995 10.1401 2.01995 12.4101C2.22995 15.0501 4.58995 17.0001 7.22995 17.0001H10.05C10.57 17.0001 11 16.5701 11 16.0501C11 15.5301 10.57 15.1001 10.05 15.1001H7.15995C5.52995 15.1001 4.05995 13.9101 3.90995 12.2801C3.75995 10.5601 5.01995 9.11008 6.65995 8.93008L8.75995 11.0301C8.32995 11.1201 7.99995 11.4901 7.99995 11.9501V12.0501C7.99995 12.5701 8.42995 13.0001 8.94995 13.0001H10.73L13 15.2701V17.0001H14.73L18.03 20.3001C18.42 20.6901 19.05 20.6901 19.44 20.3001C19.83 19.9101 19.83 19.2801 19.44 18.8901L4.11995 3.56008ZM21.9399 11.2301C21.57 8.76008 19.32 7.00008 16.82 7.00008H13.95C13.43 7.00008 13 7.43008 13 7.95008C13 8.47008 13.43 8.90008 13.95 8.90008H16.85C18.45 8.90008 19.8899 10.0401 20.07 11.6301C20.24 13.0601 19.43 14.3201 18.2199 14.8501L19.6199 16.2501C21.25 15.2301 22.26 13.3401 21.9399 11.2301ZM15.05 11.0001C15.57 11.0001 16 11.4301 16 11.9501V12.0501C16 12.2101 15.95 12.3601 15.88 12.4901L14.39 11.0001H15.05Z" fill="black"/>
</svg>

<svg xmlns="http://www.w3.org/2000/svg" viewBox="0 0 24 24"><g xmlns="http://www.w3.org/2000/svg" id="link-off" fill-rule="nonzero">
            <path d="M21.94 11.23C21.57 8.76 19.32 7 16.82 7h-2.87c-.52 0-.95.43-.95.95s.43.95.95.95h2.9c1.6 0 3.04 1.14 3.22 2.73.17 1.43-.64 2.69-1.85 3.22l1.4 1.4c1.63-1.02 2.64-2.91 2.32-5.02zM4.12 3.56a.996.996 0 10-1.41 1.41l2.4 2.4c-1.94.8-3.27 2.77-3.09 5.04C2.23 15.05 4.59 17 7.23 17h2.82c.52 0 .95-.43.95-.95s-.43-.95-.95-.95H7.16c-1.63 0-3.1-1.19-3.25-2.82a3.095 3.095 0 012.75-3.35l2.1 2.1c-.43.09-.76.46-.76.92v.1c0 .52.43.95.95.95h1.78L13 15.27V17h1.73l3.3 3.3a.996.996 0 101.41-1.41L4.12 3.56zM16 11.95c0-.52-.43-.95-.95-.95h-.66l1.49 1.49c.07-.13.12-.28.12-.44v-.1z"/>
        </g></svg>
